resources/haticons/SVG/analytics.svg

<!-- Generated by IcoMoon.io -->
<svg version="1.1" xmlns="http://www.w3.org/2000/svg" width="24" height="24" viewBox="0 0 24 24">
<title>analytics</title>
<path d="M18.984 3h-13.969q-0.844 0-1.43 0.586t-0.586 1.43v13.969q0 0.844 0.586 1.43t1.43 0.586h13.969q0.844 0 1.43-0.586t0.586-1.43v-13.969q0-0.844-0.586-1.43t-1.43-0.586zM9 17.016h-2.016v-5.016h2.016v5.016zM12.984 17.016h-1.969v-3h1.969v3zM12.984 12h-1.969v-2.016h1.969v2.016zM17.016 17.016h-2.016v-10.031h2.016v10.031z"></path>
</svg>

<svg xmlns="http://www.w3.org/2000/svg" width="24" height="24"><path d="M18.984 3H5.015q-.844 0-1.43.586t-.586 1.43v13.969q0 .844.586 1.43t1.43.586h13.969q.844 0 1.43-.586t.586-1.43V5.016q0-.844-.586-1.43T18.984 3zM9 17.016H6.984V12H9v5.016zm3.984 0h-1.969v-3h1.969v3zm0-5.016h-1.969V9.984h1.969V12zm4.032 5.016H15V6.985h2.016v10.031z"/></svg>
